icons/stock-filled.svg

<svg width="256" height="256" viewBox="0 0 256 256" fill="none" xmlns="http://www.w3.org/2000/svg">
<path d="M196 0H60C26.8629 0 0 26.8629 0 60V196C0 229.137 26.8629 256 60 256H196C229.137 256 256 229.137 256 196V60C256 26.8629 229.137 0 196 0Z" fill="#000B1D"/>
<path d="M95.7339 181.79C90.3301 181.788 84.9389 181.269 79.6339 180.24C75.4185 179.439 71.3131 178.14 67.4039 176.37C66.9606 176.104 66.6062 175.711 66.3856 175.243C66.1649 174.775 66.0878 174.252 66.1639 173.74V154.85C66.1581 154.67 66.1971 154.49 66.2774 154.328C66.3576 154.166 66.4766 154.026 66.6239 153.92C66.7727 153.835 66.9462 153.804 67.1154 153.831C67.2846 153.859 67.4393 153.943 67.5539 154.07C71.9326 156.793 76.677 158.877 81.6439 160.26C86.3781 161.597 91.2747 162.27 96.1939 162.26C102.234 162.26 106.567 161.33 109.194 159.47C110.383 158.731 111.363 157.7 112.04 156.474C112.718 155.249 113.07 153.871 113.064 152.47C113.077 150.79 112.65 149.134 111.824 147.67C110.635 145.98 109.105 144.556 107.334 143.49C104.6 141.795 101.693 140.393 98.6639 139.31L90.7639 135.9C85.3179 133.705 80.2158 130.738 75.6139 127.09C72.2729 124.494 69.7011 121.037 68.1739 117.09C66.7278 113.391 65.9916 109.452 66.0039 105.48C65.9147 100.03 67.3634 94.6651 70.1839 90.0005C73.2247 85.1486 77.6477 81.3176 82.8839 79.0005C88.4539 76.3705 95.5839 75.0005 103.944 75.0005C108.709 74.9863 113.471 75.297 118.194 75.9305C121.83 76.3782 125.381 77.3552 128.734 78.8305C129.087 79.025 129.376 79.3171 129.568 79.6717C129.759 80.0264 129.845 80.4286 129.814 80.8305V98.8305C129.793 98.9633 129.74 99.0892 129.66 99.1972C129.58 99.3052 129.475 99.3921 129.354 99.4505C129.205 99.5355 129.032 99.567 128.862 99.5397C128.693 99.5124 128.538 99.428 128.424 99.3005C124.924 97.5476 121.232 96.2053 117.424 95.3005C113.069 94.6207 108.671 94.2597 104.264 94.2205C101.661 94.1211 99.0564 94.3802 96.5239 94.9905C94.7389 95.4262 93.0204 96.0988 91.4139 96.9905C90.2153 97.7243 89.2077 98.7318 88.4739 99.9305C87.876 101.08 87.5574 102.355 87.5439 103.65C87.5135 105.24 87.9975 106.798 88.9239 108.09C90.2524 109.719 91.882 111.077 93.7239 112.09C96.6521 113.863 99.7071 115.417 102.864 116.74L108.734 118.93C115.734 121.87 121.124 124.81 124.994 128.07C128.864 131.33 131.654 134.73 133.204 138.6C134.774 142.485 135.562 146.641 135.524 150.83C135.604 156.687 133.856 162.423 130.524 167.24C127.035 172.053 122.283 175.808 116.794 178.09C110.914 180.57 103.794 181.81 95.7339 181.81V181.79ZM189.104 164.6V177.6C189.104 178.68 188.644 179.46 187.864 179.6C185.864 180.22 183.684 180.68 181.514 181.15C179.011 181.613 176.468 181.821 173.924 181.77C166.924 181.77 161.694 179.91 157.664 176.35C153.794 172.79 151.784 166.9 151.784 159.01V119.86H142.334C141.404 119.86 141.094 119.4 141.094 118.47V102.67C141.094 101.74 141.554 101.43 142.484 101.43H151.934C152.084 99.5705 152.084 97.5605 152.394 95.2405C152.544 92.9205 152.704 90.4405 153.014 88.1205C153.164 85.8005 153.474 83.7805 153.634 82.2405C153.784 81.9305 153.784 81.6205 154.094 81.3105C154.319 81.0672 154.578 80.8583 154.864 80.6905L173.734 78.3605C173.848 78.2839 173.982 78.2431 174.119 78.2431C174.256 78.2431 174.39 78.2839 174.504 78.3605C174.724 78.6187 174.835 78.952 174.814 79.2905C174.664 81.7705 174.504 85.0205 174.354 89.2005C174.204 93.3805 174.204 97.4105 174.044 101.43H188.754C189.374 101.43 189.684 101.89 189.684 102.67V118.77C189.684 119.39 189.534 119.7 188.914 119.85H173.914V153.76C173.914 157.32 174.534 159.95 175.774 161.5C177.014 163.05 179.184 163.82 182.434 163.82C183.313 163.852 184.194 163.802 185.064 163.67C185.994 163.67 186.764 163.52 187.694 163.52C187.842 163.432 188.016 163.398 188.186 163.425C188.357 163.453 188.512 163.54 188.624 163.67C188.789 163.761 188.923 163.899 189.008 164.067C189.094 164.234 189.127 164.424 189.104 164.61V164.6Z" fill="white"/>
</svg>

<svg xmlns="http://www.w3.org/2000/svg" width="256" height="256" fill="none"><path fill="#000B1D" d="M196 0H60C26.863 0 0 26.863 0 60v136c0 33.137 26.863 60 60 60h136c33.137 0 60-26.863 60-60V60c0-33.137-26.863-60-60-60"/><path fill="#fff" d="M95.734 181.79a84.7 84.7 0 0 1-16.1-1.55 54.2 54.2 0 0 1-12.23-3.87 2.61 2.61 0 0 1-1.24-2.63v-18.89a1.1 1.1 0 0 1 .46-.93.75.75 0 0 1 .93.15 54.2 54.2 0 0 0 14.09 6.19 53 53 0 0 0 14.55 2q9.06 0 13-2.79a8.2 8.2 0 0 0 3.87-7 9.6 9.6 0 0 0-1.24-4.8 14.9 14.9 0 0 0-4.49-4.18 45.6 45.6 0 0 0-8.67-4.18l-7.9-3.41a61.2 61.2 0 0 1-15.15-8.81 23.3 23.3 0 0 1-7.44-10 31.6 31.6 0 0 1-2.17-11.61A29 29 0 0 1 70.184 90a28.7 28.7 0 0 1 12.7-11c5.57-2.63 12.7-4 21.06-4 4.765-.014 9.527.297 14.25.93a37.6 37.6 0 0 1 10.54 2.9 2.1 2.1 0 0 1 1.08 2v18a.84.84 0 0 1-.46.62.75.75 0 0 1-.93-.15 50.8 50.8 0 0 0-11-4 90.6 90.6 0 0 0-13.16-1.08 28.4 28.4 0 0 0-7.74.77 20.6 20.6 0 0 0-5.11 2 8.9 8.9 0 0 0-2.94 2.94 8.25 8.25 0 0 0-.93 3.72 7.38 7.38 0 0 0 1.38 4.44 16.4 16.4 0 0 0 4.8 4 69.5 69.5 0 0 0 9.14 4.65l5.87 2.19c7 2.94 12.39 5.88 16.26 9.14s6.66 6.66 8.21 10.53a31.9 31.9 0 0 1 2.32 12.23 28.17 28.17 0 0 1-5 16.41 32.25 32.25 0 0 1-13.73 10.85c-5.88 2.48-13 3.72-21.06 3.72zm93.37-17.19v13c0 1.08-.46 1.86-1.24 2-2 .62-4.18 1.08-6.35 1.55a37.6 37.6 0 0 1-7.59.62c-7 0-12.23-1.86-16.26-5.42-3.87-3.56-5.88-9.45-5.88-17.34v-39.15h-9.45c-.93 0-1.24-.46-1.24-1.39v-15.8c0-.93.46-1.24 1.39-1.24h9.45c.15-1.86.15-3.87.46-6.19.15-2.32.31-4.8.62-7.12.15-2.32.46-4.34.62-5.88.15-.31.15-.62.46-.93q.34-.366.77-.62l18.87-2.33a.69.69 0 0 1 .77 0c.22.259.331.592.31.93-.15 2.48-.31 5.73-.46 9.91s-.15 8.21-.31 12.23h14.71c.62 0 .93.46.93 1.24v16.1c0 .62-.15.93-.77 1.08h-15v33.91c0 3.56.62 6.19 1.86 7.74s3.41 2.32 6.66 2.32c.879.032 1.76-.018 2.63-.15.93 0 1.7-.15 2.63-.15a.735.735 0 0 1 .93.15.94.94 0 0 1 .48.94z"/></svg>
